rospo-icon-theme-newyear-common/32x32/places/folder-teal-desktop.svg

<svg height="32" width="32" xmlns="http://www.w3.org/2000/svg"><rect height="22" opacity=".2" rx="1.25" width="25" x="3" y="6"/><path d="m3 7.9v17.85c0 .6925.5575 1.25 1.25 1.25h22.5c.6925 0 1.25-.5575 1.25-1.25v-17.85z" fill="#16a085"/><path d="m4.25 5c-.6925 0-1.25.5575-1.25 1.25v1.75h25v-1.75c0-.6925-.558-1.25-1.25-1.25z" fill="#08382e"/><path d="m10.5 24c-.831 0-1.5.669-1.5 1.5v1.5h13v-1.5c0-.831-.669-1.5-1.5-1.5z" fill="#08382e"/><path d="m4.25 5c-.6925 0-1.25.5575-1.25 1.25v1c0-.6925.5575-1.25 1.25-1.25h22.5c.692 0 1.25.5575 1.25 1.25v-1c0-.6925-.558-1.25-1.25-1.25z" fill="#fff" opacity=".1"/></svg>

<svg xmlns="http://www.w3.org/2000/svg" width="32" height="32" version="1.1">
 <rect style="opacity:0.2" width="25" height="22" x="3" y="6" rx="1.25" ry="1.25"/>
 <path style="fill:#16a085" d="M 3,7.9 3,25.75 C 3,26.4425 3.5575,27 4.25,27 l 22.5,0 C 27.4425,27 28,26.4425 28,25.75 L 28,7.9 Z"/>
 <path style="fill:#08382e" d="M 4.25 5 C 3.5575 5 3 5.5575 3 6.25 L 3 8 L 28 8 L 28 6.25 C 28 5.5575 27.442 5 26.75 5 L 4.25 5 z"/>
 <path style="fill:#08382e" d="M 10.5 24 C 9.669 24 9 24.669 9 25.5 L 9 27 L 22 27 L 22 25.5 C 22 24.669 21.331 24 20.5 24 L 10.5 24 z"/>
 <path style="opacity:0.1;fill:#ffffff" d="M 4.25 5 C 3.5575 5 3 5.5575 3 6.25 L 3 7.25 C 3 6.5575 3.5575 6 4.25 6 L 26.75 6 C 27.442 6 28 6.5575 28 7.25 L 28 6.25 C 28 5.5575 27.442 5 26.75 5 L 4.25 5 z"/>
</svg>
